X:302
L:1/8
M:4/4
K:A
 (3efg | a>ga>g a>ec>f | e>^de>f e>cA>c | B>^AB>c B>GE>G | A>Bc>d e>ef>g | a>ga>g a>ec>f | 
 e>^de>f e>cA>c | B>cB>G E>FG>E | A2 c2 A2 :: G>A | B>^AB>c d>BG>E | A>Bc>d e>fe>c | 
 d>ef>g a>ga>f | bag>f e2 G>A | B>^AB>c d>BG>E | A>Bc>d e>fg>a | g>fd>B G>EF>G | A2 c2 A2!D.C.! :|

